icons/midnadark/actions/24/view-categories-incomes.svg

<?xml version="1.0" encoding="UTF-8" standalone="no"?>
<!-- Created with Inkscape (http://www.inkscape.org/) -->

<svg
   xmlns:sketch="http://www.bohemiancoding.com/sketch/ns"
   xmlns:osb="http://www.openswatchbook.org/uri/2009/osb"
   xmlns:dc="http://purl.org/dc/elements/1.1/"
   xmlns:cc="http://creativecommons.org/ns#"
   xmlns:rdf="http://www.w3.org/1999/02/22-rdf-syntax-ns#"
   xmlns:svg="http://www.w3.org/2000/svg"
   xmlns="http://www.w3.org/2000/svg"
   xmlns:sodipodi="http://sodipodi.sourceforge.net/DTD/sodipodi-0.dtd"
   xmlns:inkscape="http://www.inkscape.org/namespaces/inkscape"
   width="22"
   height="22"
   id="svg3869"
   version="1.1"
   inkscape:version="0.91 r13725"
   sodipodi:docname="view-categories-incomes.svg">
  <defs
     id="defs3871">
    <linearGradient
       id="linearGradient4207"
       osb:paint="gradient">
      <stop
         style="stop-color:#3498db;stop-opacity:1;"
         offset="0"
         id="stop3371" />
      <stop
         style="stop-color:#3498db;stop-opacity:0;"
         offset="1"
         id="stop3373" />
    </linearGradient>
    <style
       id="current-color-scheme"
       type="text/css">
      .ColorScheme-Text {
        color:#4d4d4d;
      }
      .ColorScheme-Background {
        color:#eff0f1;
      }
      .ColorScheme-Highlight {
        color:#3daee9;
      }
      .ColorScheme-ViewText {
        color:#31363b;
      }
      .ColorScheme-ViewBackground {
        color:#fcfcfc;
      }
      .ColorScheme-ViewHover {
        color:#93cee9;
      }
      .ColorScheme-ViewFocus{
        color:#3daee9;
      }
      .ColorScheme-ButtonText {
        color:#31363b;
      }
      .ColorScheme-ButtonBackground {
        color:#eff0f1;
      }
      .ColorScheme-ButtonHover {
        color:#93cee9;
      }
      .ColorScheme-ButtonFocus{
        color:#3daee9;
      }
      </style>
    <style
       id="current-color-scheme-5"
       type="text/css">
      .ColorScheme-Text {
        color:#4d4d4d;
      }
      .ColorScheme-Background {
        color:#eff0f1;
      }
      .ColorScheme-Highlight {
        color:#3daee9;
      }
      .ColorScheme-ViewText {
        color:#31363b;
      }
      .ColorScheme-ViewBackground {
        color:#fcfcfc;
      }
      .ColorScheme-ViewHover {
        color:#93cee9;
      }
      .ColorScheme-ViewFocus{
        color:#3daee9;
      }
      .ColorScheme-ButtonText {
        color:#31363b;
      }
      .ColorScheme-ButtonBackground {
        color:#eff0f1;
      }
      .ColorScheme-ButtonHover {
        color:#93cee9;
      }
      .ColorScheme-ButtonFocus{
        color:#3daee9;
      }
      </style>
  </defs>
  <sodipodi:namedview
     id="base"
     pagecolor="#ffffff"
     bordercolor="#666666"
     borderopacity="1.0"
     inkscape:pageopacity="0.0"
     inkscape:pageshadow="2"
     inkscape:zoom="15.999999"
     inkscape:cx="-1.0625028"
     inkscape:cy="13.912832"
     inkscape:document-units="px"
     inkscape:current-layer="layer1-6"
     showgrid="true"
     fit-margin-top="0"
     fit-margin-left="0"
     fit-margin-right="0"
     fit-margin-bottom="0"
     inkscape:window-width="1366"
     inkscape:window-height="687"
     inkscape:window-x="0"
     inkscape:window-y="0"
     inkscape:window-maximized="1"
     inkscape:showpageshadow="false"
     inkscape:snap-bbox="true"
     inkscape:object-nodes="true">
    <inkscape:grid
       type="xygrid"
       id="grid4132" />
    <sodipodi:guide
       position="5,3"
       orientation="0,18"
       id="guide4140" />
    <sodipodi:guide
       position="2,21"
       orientation="0,-18"
       id="guide4144" />
    <sodipodi:guide
       position="3,19.000017"
       orientation="16,0"
       id="guide4146" />
    <sodipodi:guide
       position="2,4"
       orientation="0,16"
       id="guide4148" />
    <sodipodi:guide
       position="21,20"
       orientation="-16,0"
       id="guide4150" />
    <sodipodi:guide
       position="2,20"
       orientation="0,-16"
       id="guide4152" />
  </sodipodi:namedview>
  <metadata
     id="metadata3874">
    <rdf:RDF>
      <cc:Work
         rdf:about="">
        <dc:format>image/svg+xml</dc:format>
        <dc:type
           rdf:resource="http://purl.org/dc/dcmitype/StillImage" />
        <dc:title />
      </cc:Work>
    </rdf:RDF>
  </metadata>
  <g
     inkscape:label="Capa 1"
     inkscape:groupmode="layer"
     id="layer1"
     transform="translate(-326,-534.3622)">
    <g
       transform="translate(1,-1)"
       id="layer1-4"
       inkscape:label="Capa 1">
      <g
         transform="translate(-20.05,1.338)"
         id="layer1-45"
         inkscape:label="Capa 1" />
      <g
         id="g4668"
         transform="translate(-0.99999969,1)">
        <g
           inkscape:label="Capa 1"
           id="layer1-24"
           transform="matrix(1.1111103,0,0,1,-38.555282,0.99999823)">
          <g
             transform="matrix(0.66666667,0,0,0.66666667,70.952379,189.8302)"
             id="layer1-6"
             inkscape:label="Capa 1">
            <g
               transform="translate(27.682101,0.12839698)"
               id="g4369">
              <g
                 id="g4303">
                <g
                   inkscape:label="Capa 1"
                   id="layer1-28"
                   transform="matrix(1.5,0,0,1.5,360.88933,-1034.8737)">
                  <g
                     transform="translate(-412.88298,512.00351)"
                     id="layer1-4-6"
                     inkscape:label="Capa 1">
                    <g
                       style="fill:#ffffff;fill-opacity:1"
                       inkscape:label="Capa 1"
                       id="layer1-7"
                       transform="translate(392.57143,-514.5642)" />
                    <g
                       transform="translate(341.79698,500.25245)"
                       id="g4240">
                      <g
                         transform="translate(-392.98822,-511.27795)"
                         id="layer1-1"
                         inkscape:label="Capa 1"
                         inkscape:transform-center-x="5.4653607"
                         inkscape:transform-center-y="-9.4924686">
                        <g
                           transform="matrix(1.3333333,0,0,1.3333333,-61.890355,-165.99713)"
                           id="layer1-15"
                           inkscape:label="Capa 1">
                          <g
                             style="fill:#ffffff;fill-opacity:1"
                             inkscape:label="Capa 1"
                             id="layer1-7-8"
                             transform="translate(392.57143,-514.5642)" />
                          <g
                             transform="translate(341.79698,500.25245)"
                             id="g4240-4">
                            <g
                               transform="translate(-392.98822,-511.27795)"
                               id="layer1-1-5"
                               inkscape:label="Capa 1"
                               inkscape:transform-center-x="5.4653607"
                               inkscape:transform-center-y="-9.4924686">
                              <g
                                 style="stroke:#1f2a47;stroke-opacity:1"
                                 transform="translate(0.41988239,0.03484499)"
                                 inkscape:label="Capa 1"
                                 id="layer1-3-8">
                                <g
                                   id="g4186"
                                   transform="translate(440.36158,509.62534)">
                                <g
                                   id="g4186-3"
                                   transform="matrix(0.52109202,0,0,0.52109202,-0.76995909,19.353185)"
                                   style="stroke:#1f2a47;stroke-opacity:1">
                                <g
                                   id="layer1-3-6"
                                   inkscape:label="Capa 1"
                                   transform="translate(-400.50475,-509.14629)">
                                <g
                                   transform="matrix(1.0037077,0,0,1.0037077,11.267145,17.846026)"
                                   id="layer1-2"
                                   inkscape:label="Capa 1">
                                <g
                                   id="g4414-9"
                                   transform="matrix(1.5263052,0,0,1.5263052,376.49864,-1040.1735)">
                                <g
                                   transform="matrix(1.1526351,0,0,1.1526351,-4.8344134,-156.43331)"
                                   id="g4180">
                                <g
                                   id="g4186-6"
                                   transform="matrix(0.56841663,0,0,0.56841663,10.426663,1005.5718)" />
                                <g
                                   id="g4280">
                                <g
                                   transform="matrix(0.81509151,0,0,0.81509151,-323.19965,584.90903)"
                                   id="layer1-43"
                                   inkscape:label="Capa 1">
                                <g
                                   style="fill:#ffffff;fill-opacity:1"
                                   inkscape:label="Capa 1"
                                   id="layer1-7-3"
                                   transform="translate(392.57143,-514.5642)" />
                                <g
                                   transform="translate(341.79698,500.25245)"
                                   id="g4240-2">
                                <g
                                   transform="translate(-392.98822,-511.27795)"
                                   id="layer1-1-56"
                                   inkscape:label="Capa 1"
                                   inkscape:transform-center-x="5.4653607"
                                   inkscape:transform-center-y="-9.4924686">
                                <g
                                   style="stroke:#1f2a47;stroke-opacity:1"
                                   transform="translate(0.41988239,0.03484499)"
                                   inkscape:label="Capa 1"
                                   id="layer1-3">
                                <g
                                   id="g4186-1"
                                   transform="translate(440.36158,509.62534)">
                                <g
                                   id="g4186-3-9"
                                   transform="matrix(0.52109202,0,0,0.52109202,-0.76995909,19.353185)"
                                   style="stroke:#1f2a47;stroke-opacity:1">
                                <g
                                   id="layer1-3-6-6"
                                   inkscape:label="Capa 1"
                                   transform="translate(-400.50475,-509.14629)">
                                <g
                                   transform="matrix(0.76761933,0,0,0.76761933,156.46876,138.50552)"
                                   id="g4162"
                                   style="stroke:none">
                                <path
                                   style="opacity:1;fill:#ffffff;fill-opacity:1;stroke:none;stroke-width:2.79999995;stroke-miterlimit:4;stroke-dasharray:none;stroke-opacity:0.55026455"
                                   d="M 3.8886719 3 C 3.3962274 3 3 3.3575809 3 3.8007812 L 3 18.199219 C 3 18.642419 3.3962274 19 3.8886719 19 L 18.111328 19 C 18.603773 19 19 18.642419 19 18.199219 L 19 3.8007812 C 19 3.3575809 18.603773 3 18.111328 3 L 3.8886719 3 z M 5.4609375 5 L 10.076172 5 C 10.331123 5 10.539062 5.2059853 10.539062 5.4609375 L 10.539062 10.076172 C 10.539062 10.331124 10.331123 10.539062 10.076172 10.539062 L 5.4609375 10.539062 C 5.2059864 10.539062 5 10.331124 5 10.076172 L 5 5.4609375 C 5 5.2059853 5.2059864 5 5.4609375 5 z M 11.923828 5 L 16.539062 5 C 16.794014 5 17 5.2059853 17 5.4609375 L 17 10.076172 C 17 10.331124 16.794014 10.539062 16.539062 10.539062 L 11.923828 10.539062 C 11.668877 10.539062 11.460938 10.331124 11.460938 10.076172 L 11.460938 5.4609375 C 11.460938 5.2059853 11.668877 5 11.923828 5 z M 5.4609375 11.460938 L 10.076172 11.460938 C 10.331123 11.460937 10.539062 11.668384 10.539062 11.923828 L 10.539062 16.539062 C 10.539062 16.794016 10.331123 17 10.076172 17 L 5.4609375 17 C 5.2059864 17 5 16.794016 5 16.539062 L 5 11.923828 C 5 11.668876 5.2059864 11.460938 5.4609375 11.460938 z "
                                   transform="matrix(2.2499999,0,0,2.4999981,383.82144,496.29801)"
                                   id="path4232" />
                                <path
                                   style="opacity:1;fill:#2ecc71;fill-opacity:1;stroke:none;stroke-width:2.79999995;stroke-miterlimit:4;stroke-dasharray:none;stroke-opacity:0.55026455"
                                   d="m 410.65005,524.95033 10.38428,0 c 0.57364,0 1.03822,0.51497 1.03711,1.15234 l 0,11.53808 c 0,0.63738 -0.46786,1.15723 -1.04151,1.15723 l -5.18994,0 -5.18994,0 c -0.57364,0 -1.0415,-0.51985 -1.0415,-1.15723 l 0,-5.76659 0,-5.7666 c 0,-0.63738 0.46786,-1.15723 1.0415,-1.15723 z"
                                   id="path4222" />
                                <g
                                   transform="translate(-0.71741557,0.01714041)"
                                   inkscape:label="Capa 1"
                                   id="layer1-7-4-3"
                                   style="fill:#ffffff;fill-opacity:1;stroke:none" />
                                <g
                                   id="g4241" />
                                </g>
                                </g>
                                </g>
                                </g>
                                </g>
                                </g>
                                </g>
                                </g>
                                </g>
                                </g>
                                </g>
                                </g>
                                </g>
                                </g>
                                </g>
                              </g>
                            </g>
                          </g>
                        </g>
                      </g>
                    </g>
                  </g>
                </g>
              </g>
              <g
                 style="fill:#ffffff;fill-opacity:1"
                 inkscape:label="Capa 1"
                 id="layer1-0"
                 transform="matrix(1.4715757,0,0,1.4715757,354.21643,-1005.9837)">
                <g
                   style="fill:#ffffff;fill-opacity:1"
                   transform="matrix(0.96260036,0,0,0.96260036,-533.04726,449.15877)"
                   id="layer1-99"
                   inkscape:label="Capa 1">
                  <g
                     style="fill:#ffffff;fill-opacity:1"
                     transform="matrix(0.14300539,0,0,0.14300539,554.04072,610.29161)"
                     sketch:type="MSShapeGroup"
                     id="g5548">
                    <g
                       style="fill:#ffffff;fill-opacity:1"
                       inkscape:label="Layer 1"
                       id="layer1-9-1"
                       transform="matrix(5.8601665,0,0,5.8601665,-4463.4849,-1083.96)">
                      <g
                         style="fill:#ffffff;fill-opacity:1"
                         transform="matrix(0.37907185,0,0,0.37907185,615.60988,-10.010196)"
                         id="layer1-2-6"
                         inkscape:label="Capa 1">
                        <g
                           id="remove11"
                           sketch:type="MSLayerGroup"
                           transform="matrix(0.20663505,0,0,0.20663505,416.2249,531.51293)"
                           style="fill:#ffffff;fill-opacity:1" />
                      </g>
                    </g>
                  </g>
                </g>
              </g>
            </g>
          </g>
        </g>
        <g
           style="fill:#ffffff;fill-opacity:1"
           transform="matrix(0.49313717,0,0,0.49313717,331,539.3622)"
           id="g3">
          <g
             style="fill:#ffffff;fill-opacity:1"
             id="g5" />
        </g>
      </g>
    </g>
  </g>
</svg>

<svg xmlns="http://www.w3.org/2000/svg" viewBox="0 0 22 22"><g transform="matrix(.44445 0 0 .4-170.6-198.55)" stroke="none" stroke-opacity=".55" stroke-width="2.8"><path d="m3.889 3c-.492 0-.889.358-.889.801v14.398c0 .443.396.801.889.801h14.223c.492 0 .889-.358.889-.801v-14.398c0-.443-.396-.801-.889-.801h-14.223m1.572 2h4.615c.255 0 .463.206.463.461v4.615c0 .255-.208.463-.463.463h-4.615c-.255 0-.461-.208-.461-.463v-4.615c0-.255.206-.461.461-.461m6.463 0h4.615c.255 0 .461.206.461.461v4.615c0 .255-.206.463-.461.463h-4.615c-.255 0-.463-.208-.463-.463v-4.615c0-.255.208-.461.463-.461m-6.463 6.461h4.615c.255 0 .463.207.463.463v4.615c0 .255-.208.461-.463.461h-4.615c-.255 0-.461-.206-.461-.461v-4.615c0-.255.206-.463.461-.463" transform="matrix(2.25 0 0 2.5 383.82 496.3)" fill="#fff"/><path d="m410.65 524.95h10.384c.574 0 1.038.515 1.037 1.152v11.538c0 .637-.468 1.157-1.042 1.157h-5.19-5.19c-.574 0-1.041-.52-1.041-1.157v-5.767-5.767c0-.637.468-1.157 1.041-1.157" fill="#2ecc71"/></g></svg>
